X: 09082
T: MULTNOMAH MARCH
C: Bob McQuillen 8 Apr 89
B: Bob's Note Book 9 p. 82
B: Portland Collection v.2 p.141
R: march
Z: 2016 John Chambers <jc:trillian.mit.edu>
M: C
L: 1/4
K: A
AB \
| c>B AE | F A2 B | c>B AB | c e2 c/e/ \
| f>e fa | f<e c>B | A>c BA | F<E A>B |
| c>B AE | F A2 B | c>B AB | c e2 c/e/ \
| f>e fa | f<e c>A | B<A A>A | A2 |]
[| cd \
| e>f ec | e a2 f | e>c AB | c f2 c/B/ \
| AF F>E | FA A>F | E>F Ac | cB cd |
| e>f ec | e a2 f | e>c AB | c f2 c/B/ \
| AF F>E | FA A>f | e<c B>A | A2 |]
%%begintext align
%% What a wonderful weekend we all had at Jim Howe's very first
%% Spring Festival, held at the Multnomah Art Center in Portland,
%% OR. It was a great success, Jim - Congratulations!
%%endtext

%%sep 1 1 500

%%sep 1 1 500

